X: 214
T: Mrs J Rose
M: C
L: 1/8
Q:1/4=170
K:Dm % 1 Flat
C: D MacIntyre
% (c) SSF July 2006
a|
"Dm"f<dd>c A<dd>f|"Am7"e>cg>c e/2f/2g/2e/2 c<a|"Dm"f<dd>c A<dd>f|"Am"e>c a/2g/2f/2e/2 "Dm"f<d d:||\
a|
"Dm"d>ef>e d<AAF|"C"E<cG<c E<CC<A|"Dm"d>e f/2g/2e/2f/2 d<A A<F|"Am"E>c "A"A/2^B/2^c/2A/2 "Dm"d<DD<A|\
"Dm"d>ef>e d<AAF|"C"E<cG<c E<CC<E|"Dm"DF"C"Eg "Dm"Fa"Gm"Gb|"Am"a>A a/2g/2f/2e/2 "Dm"f<d f||


%  <A name="D1X215"></A>
